SuperDirt.start
Server.local.options.device = 1; // Builtin
Server.local.options.device = 3; // "Display Audio"
~dirt.loadSoundFiles("Users/alptugan/Downloads/aminidrum");
~dirt.loadSoundFiles("Users/alptugan/Downloads/aglitch");
~dirt.loadSoundFiles("Users/alptugan/Downloads/akick");
~dirt.loadSoundFiles("Users/alptugan/Downloads/atrip1");

~dirt.loadSoundFiles("Users/alptugan/Downloads/aset1");

